Papirus/24x24/apps/nym-vpn-app.svg

<svg width="24" height="24" version="1.1" xmlns="http://www.w3.org/2000/svg">
 <rect x="1.9999962" y="2.5000062" width="20.000008" height="20.000008" ry="3.8551757" style="opacity:.2"/>
 <rect x="1.9999962" y="2" width="20.000008" height="20.000008" ry="3.8551757" style="fill:#45cf7b"/>
 <path d="m6.21967 5.5000038c-0.67325 0-1.21967 0.58505-1.21967 1.30665v12.69335h4v-12.4404c0-0.218 0.0968-0.25925 0.14991-0.04885l2.80419 11.11035c0.2053 0.814 0.5688 1.3789 1.3554 1.3789h4.4718c0.6732 0 1.2187-0.585 1.2187-1.3066v-12.6934h-4v12.7159c0 0.2184-0.0969 0.2598-0.1494 0.0488l-2.8352-11.3799c-0.2035-0.8168-0.5691-1.3848-1.3577-1.3848z" style="opacity:.2;stop-color:#000000"/>
 <path d="m6 5.0000038c-0.45358 0-1 0.58505-1 1.30665v12.69335h4v-12.4404c0-0.218 0.0968-0.25925 0.14991-0.04885l2.80419 11.11035c0.2053 0.8139 0.5688 1.3789 1.3554 1.3789h4.4718c0.6732 0 1.2187-0.5851 1.2187-1.3067v-12.6933h-4v12.7158c0 0.2184-0.0969 0.2599-0.1494 0.0488l-2.8352-11.3798c-0.2035-0.8168-0.5691-1.3848-1.3577-1.3848z" style="fill:#454545;stop-color:#000000"/>
 <path d="m6.21875 5.0000038c-0.67325 0-1.21875 0.58504-1.21875 1.30664v0.5c0-0.7216 0.5455-1.30664 1.21875-1.30664h4.43945c0.7887 0 1.1539 0.56797 1.3574 1.38477l2.836 11.38083c0.0525 0.2111 0.1484 0.1696 0.1484-0.0488v-0.5c0 0.2184-0.0959 0.2579-0.1484 0.0469l-2.836-11.37893c-0.2035-0.8168-0.5687-1.38477-1.3574-1.38477zm8.78125 0v0.5h4v-0.5z" style="fill:#ffffff;opacity:.1;stop-color:#000000"/>
 <path d="m5.85545 2.0000038c-2.13575 0-3.85545 1.7197-3.85545 3.85545v0.5c0-2.13574 1.7197-3.85545 3.85545-3.85545h12.28905c2.1358 0 3.8555 1.71971 3.8555 3.85545v-0.5c0-2.13575-1.7197-3.85545-3.8555-3.85545z" style="fill:#ffffff;opacity:.2"/>
</svg>

<svg width="24" height="24" version="1.1" xmlns="http://www.w3.org/2000/svg">
 <rect x="2" y="2.5" width="20" height="20" ry="3.8551743" style="opacity:.2"/>
 <rect x="2" y="2" width="20" height="20" ry="3.8551743" style="fill:#45cf7b"/>
 <path d="m6.21967 5.5c-0.67325 0-1.21967 0.58505-1.21967 1.30665v12.69335h4v-12.4404c0-0.218 0.096799-0.25925 0.14991-0.04885l2.80419 11.11035c0.2053 0.814 0.5688 1.3789 1.3554 1.3789h4.4718c0.6732 0 1.2187-0.585 1.2187-1.3066v-12.6934h-4v12.7159c0 0.2184-0.0969 0.2598-0.1494 0.0488l-2.8352-11.3799c-0.2035-0.8168-0.5691-1.3848-1.3577-1.3848z" style="opacity:.2"/>
 <path d="M 6,5 C 5.54642,5 5,5.58505 5,6.30665 V 19 H 9 V 6.5596 C 9,6.3416 9.096801,6.30035 9.14991,6.51075 L 11.9541,17.6211 C 12.1594,18.435 12.5229,19 13.3095,19 h 4.4718 C 18.4545,19 19,18.4149 19,17.6933 V 5 h -4 v 12.7158 c 0,0.2184 -0.0969,0.2599 -0.1494,0.0488 L 12.0154,6.3848 C 11.8119,5.568 11.4463,5 10.6577,5 Z" style="fill:#454545"/>
 <path d="M 6.21875,5 C 5.5455,5 5,5.58504 5,6.30664 v 0.5 C 5,6.08504 5.5455,5.5 6.21875,5.5 h 4.43945 c 0.7887,0 1.1539,0.56797 1.3574,1.38477 l 2.836,11.38083 C 14.9041,18.4767 15,18.4352 15,18.2168 v -0.5 c 0,0.2184 -0.0959,0.2579 -0.1484,0.0469 L 12.0156,6.38477 C 11.8121,5.56797 11.4469,5 10.6582,5 Z M 15,5 v 0.5 h 4 V 5 Z" style="fill:#ffffff;opacity:.1"/>
 <path d="M 5.85545,2 C 3.7197,2 2,3.7195223 2,5.8550517 V 6.355 C 2,4.2194806 3.7197,2.4999483 5.85545,2.4999483 H 18.1445 C 20.2803,2.4999483 22,4.2194806 22,6.355 V 5.8550517 C 22,3.7195223 20.2803,2 18.1445,2 Z" style="fill:#ffffff;opacity:.2"/>
</svg>
